Simply-Blue-Circles/symbolic/places/folder-video-symbolic.svg

<svg xmlns="http://www.w3.org/2000/svg" width="24" height="24" version="1"><defs><linearGradient id="b"><stop offset="0"/><stop offset="1" stop-opacity="0"/></linearGradient><linearGradient id="a"><stop offset="0" stop-color="#edb763"/><stop offset=".5" stop-color="#de7f32"/><stop offset="1" stop-color="#d24413"/></linearGradient><linearGradient id="c"><stop offset="0" stop-color="#f6b2ee"/><stop offset=".262" stop-color="#d979cd"/><stop offset="1" stop-color="#753da6"/></linearGradient></defs><path d="M3.779 3.012a.43.43 0 0 0-.433.428v17.12a.43.43 0 0 0 .433.428H20.22a.43.43 0 0 0 .433-.428V3.44a.43.43 0 0 0-.433-.428H5.942zm.507 1.354h1.448v.725H4.286zm13.98 0h1.448v.725h-1.448zm-11.592.503h10.52v6.63H6.674zM4.286 6.54h1.448v.723H4.286zm13.98 0h1.448v.723h-1.448zM4.286 8.712h1.448v.725H4.286zm13.98 0h1.448v.725h-1.448zm-13.98 2.173h1.448v.723H4.286zm13.98 0h1.448v.723h-1.448zM6.674 12.887h10.52v6.249H6.674zm-2.388.168h1.448v.726H4.286zm13.98 0h1.448v.726h-1.448zM4.286 15.23h1.448v.724H4.286zm13.98 0h1.448v.724h-1.448zm-13.98 2.173h1.448v.724H4.286zm13.98 0h1.448v.724h-1.448zm-13.98 2.172h1.448v.725H4.286zm13.98 0h1.448v.725h-1.448z" fill="gray"/></svg>

<?xml version="1.0" encoding="UTF-8" standalone="no"?>
<svg
   xmlns:dc="http://purl.org/dc/elements/1.1/"
   xmlns:cc="http://creativecommons.org/ns#"
   xmlns:rdf="http://www.w3.org/1999/02/22-rdf-syntax-ns#"
   xmlns:svg="http://www.w3.org/2000/svg"
   xmlns="http://www.w3.org/2000/svg"
   xmlns:sodipodi="http://sodipodi.sourceforge.net/DTD/sodipodi-0.dtd"
   xmlns:inkscape="http://www.inkscape.org/namespaces/inkscape"
   width="24"
   height="24"
   version="1"
   id="svg25"
   sodipodi:docname="folder-video-symbolic.svg"
   inkscape:version="0.92.4 (5da689c313, 2019-01-14)">
  <metadata
     id="metadata29">
    <rdf:RDF>
      <cc:Work
         rdf:about="">
        <dc:format>image/svg+xml</dc:format>
        <dc:type
           rdf:resource="http://purl.org/dc/dcmitype/StillImage" />
        <dc:title></dc:title>
      </cc:Work>
    </rdf:RDF>
  </metadata>
  <sodipodi:namedview
     pagecolor="#ffffff"
     bordercolor="#666666"
     borderopacity="1"
     objecttolerance="10"
     gridtolerance="10"
     guidetolerance="10"
     inkscape:pageopacity="0"
     inkscape:pageshadow="2"
     inkscape:window-width="1085"
     inkscape:window-height="480"
     id="namedview27"
     showgrid="false"
     inkscape:zoom="9.8333333"
     inkscape:cx="1.0677966"
     inkscape:cy="12"
     inkscape:window-x="0"
     inkscape:window-y="25"
     inkscape:window-maximized="0"
     inkscape:current-layer="svg25" />
  <defs
     id="defs21">
    <linearGradient
       id="b">
      <stop
         offset="0"
         id="stop2" />
      <stop
         offset="1"
         stop-opacity="0"
         id="stop4" />
    </linearGradient>
    <linearGradient
       id="a">
      <stop
         offset="0"
         stop-color="#edb763"
         id="stop7" />
      <stop
         offset=".5"
         stop-color="#de7f32"
         id="stop9" />
      <stop
         offset="1"
         stop-color="#d24413"
         id="stop11" />
    </linearGradient>
    <linearGradient
       id="c">
      <stop
         offset="0"
         stop-color="#f6b2ee"
         id="stop14" />
      <stop
         offset=".262"
         stop-color="#d979cd"
         id="stop16" />
      <stop
         offset="1"
         stop-color="#753da6"
         id="stop18" />
    </linearGradient>
  </defs>
  <path
     d="M 3.779,3.012 A 0.43,0.43 0 0 0 3.346,3.44 v 17.12 a 0.43,0.43 0 0 0 0.433,0.428 H 20.22 A 0.43,0.43 0 0 0 20.653,20.56 V 3.44 A 0.43,0.43 0 0 0 20.22,3.012 H 5.942 Z M 4.286,4.366 H 5.734 V 5.091 H 4.286 Z m 13.98,0 h 1.448 V 5.091 H 18.266 Z M 6.674,4.869 h 10.52 v 6.63 H 6.674 Z M 4.286,6.54 H 5.734 V 7.263 H 4.286 Z m 13.98,0 h 1.448 V 7.263 H 18.266 Z M 4.286,8.712 H 5.734 V 9.437 H 4.286 Z m 13.98,0 h 1.448 v 0.725 h -1.448 z m -13.98,2.173 h 1.448 v 0.723 H 4.286 Z m 13.98,0 h 1.448 v 0.723 H 18.266 Z M 6.674,12.887 h 10.52 v 6.249 H 6.674 Z m -2.388,0.168 h 1.448 v 0.726 H 4.286 Z m 13.98,0 h 1.448 v 0.726 H 18.266 Z M 4.286,15.23 h 1.448 v 0.724 H 4.286 Z m 13.98,0 h 1.448 v 0.724 h -1.448 z m -13.98,2.173 h 1.448 v 0.724 H 4.286 Z m 13.98,0 h 1.448 v 0.724 H 18.266 Z M 4.286,19.575 H 5.734 V 20.3 H 4.286 Z m 13.98,0 h 1.448 V 20.3 h -1.448 z"
     id="path23"
     inkscape:connector-curvature="0"
     style="fill:#808080" />
</svg>
